!!!COM: Fux, Johann Joseph
!!!OMD: Gradus ad Parnassum Exercise
!!!YEC: CC0 1.0 Universal (Public Domain). Mark Gotham and FourScoreAndMore.org waive all rights to this document.
**kern	**kern	**kern
*part3	*part2	*part1
*staff3	*staff2	*staff1
*I"3	*I"2	*I"1
*I'Pno	*I'Pno	*I'Pno
!!LO:LB:g=z
*clefGv2	*clefG2	*clefG2
*k[]	*k[]	*k[]
!!LO:TX:omd:t=
*M4/4	*M4/4	*M4/4
=199	=199	=199
!	!	!LO:TX:a:t=Fig. 122; Species&colon; 2; Modal final&colon; d; Cantus firmus&colon; 2
1D	1d	2r
.	.	2f/
=200	=200	=200
1D	1f	2a/
.	.	2b\
=201	=201	=201
1C	1e	2cc\
.	.	2a/
=202	=202	=202
1G	1d	2b\
.	.	2g/
=203	=203	=203
1E	1g	2b\
.	.	2cc\
=204	=204	=204
1D	1f	2dd\
.	.	2ff\
=205	=205	=205
1F	1a	2cc\
.	.	2dd\
=206	=206	=206
1c	1g	2ee\
.	.	2cc\
=207	=207	=207
1d	1f	2a/
.	.	[2dd\
=208	=208	=208
1A	1e	2dd\]
.	.	2cc#X\
=209	=209	=209
1D	1d	1dd
==	==	==
*-	*-	*-
!!!software: music21 v.9.7.1
!!!software: music21 v.9.7.1
!!!software: MuseScore 3.4.2
!!!RDF**kern: > = above
!!!RDF**kern: < = below
